X:1
T:As I was walking beside Dublin
T:Air mo ghabhail dhom taoibh Bhile-Atha-Cliath
M:3/4
L:1/8
R:Air
N:"Moderate time"
S:Joyce - Old Irish Folk Music and Songs(1909)
Z:AK/Fiddler's Companion
K:G
g/f/e|d2 d>cBc|B>AGBdB|A2G2G2|G4G2|Bcdefd|gfedcB|c2d2 e>c|d4 d/e/f|
g2 efg>e|=fedc B2|c2d2 ef|g4 eg|=f>edcBc|BAGBd>B|A2G2G2|G4||
</abc>

